X: 35908
T: Sandy River Belle
R: reel
M: 4/4
K: Gmajor
|:DEGA B3 B|A2 G2 e2 d2|DEGA B3 B|A2 G2 E2 D2|
DEGA B3 B|A2 G2 e2 d2|d2 ge d2 ge|dB A2 G4:|
|:d2 gded B2|d2 b2 a2 g2|d2 gd ed B2|ed B2 A4|
d2 gded B2|dgbg ageg|d2 gd edge|dB A2 G4:|

